X:1
T:Ridendosi di me la donna mia
T:Tiburtio Massaino
T:Ridendosi di me la donna mia
C:Tiburtio Massaino
%%score [ 1 2 3 4 ]
L:1/8
Q:1/4=108
M:4/2
K:C
V:1 alto1 nm="Soprano" snm="S"
V:2 alto nm="Alto" snm="A"
V:3 tenor nm="Tenor" snm="T"
V:4 bass nm="Bass" snm="B"
V:1
 z16 |[K:Eb][K:treble] z2 B2 B3 B e2 d2 c4 | z8 c2 e4 d2 | c4 B4 z4 z2 c2- | c2 B4 A2 G2 F2 E3 F | %5
w: |Ri- den- do- si di me|la don- na|mi- a, In|_ pre- mio del mi a- mo- *|
 GA B4 =A2 B4 z4 | z4 z2 B2 c2 d2 e3 d | c2 B2 c4 d2 e3 d/c/ d2 | e8 z4 z2 B2 | f4 d2 g3 fed c4 | %10
w: * * * * re,|Mi fe- ce un don d'un|si- mu- la- to co- * * *|re, Spe-|rai un tem- * * * *|
 B4 z4 z4 B4- | B2 G2 G4 G2 G2 c4 | F4 z2 F2 G3 A B2 B2 | c3 c B2 G2 cBcdec e2- | %14
w: po et|_ fu va- no il pen- sie-|ro, Che co- no- scen- do|la mia pu- ra fe- * * * * * *|
 ed c3 B B4 A2 B4 | z4 z2 d2 e2 B2 c2 B2 | z2 f4 d2 d4 g3 f | e6 dc B2 d4 B2 | B4 e3 d c4 B4 | %19
w: * * * * * * de,|Mi des- se in cam- bio|il suo cor vi- vo e|ve- * * ro, il suo|cor vi- vo e ve- ro,|
 z4 B4 A2 G2 B4 | =A4 B3 B c2 B2 B4 | B4 z2 c2 B2 B2 edcB | c8 c8 | z4 G4 B4 B4 | %24
w: Et que- sto sol|mi te- ne un tem- po in vi-|ta, un tem- po in vi- * * *|* ta,|Hor ch'ell' al-|
 c3 c B3 cdB e4 d2 | c4 d4 z8 | z8 z4 z2 B2 | B3 B e4 d2 e4 f2 | g4 g4 z4 =B4- | B4 =B4 B8 | %30
w: tro v'il pied' _ _ _ _ ha|vol- to,|E ad|al- tre im- pres' il ciel mi|chia- ma, Que-|* sto cor|
 c6 B2 c2 d2 e4 | d16 | z8 z4 z2 e2 | d3 B c2 d2 e4 d4 | z8 z2 B2 B2 B2 | A2 G2 B4 z4 f2 fe | %36
w: ar- * * * *|do|e'l|mio ri- tor- mi vo- glio,|E del su'in-|de- gn'a- mor lie- to _|
 dc B2 =A2 B3 A/G/ A2 B2 EF | GA B3 B G2 B4 B4 | z4 f2 fedc B2 =A2 B2- | B2 =AG A4 B8 | %40
w: _ _ _ mi scio- * * * glio, lie- *|* * * to mi scio- glio,|lie- to _ _ _ _ mi scio-|* * * * glio,|
 z8 z2 B2 B2 B2 | A2 G2 B4 z4 f2 fe | dc B2 =A2 B3 A/G/ A2 B2 EF | GA B3 B G2 B4 B4 | %44
w: E del su'in-|de- gn'a- mor lie- to _|_ _ _ mi scio- * * * glio, lie- *|* * * to mi scio- glio,|
 z4 f2 fedc B2 =A2 B2- | B2 =AG A4 B8 |] %46
w: lie- to _ _ _ _ mi scio-|* * * * glio.|
V:2
 z16 |[K:Eb][K:treble] z2 G2 F3 G A2 B2 =A4 | c4 B2 B2 =A4 B4 | F2 A4 G2 F4 E4 | z4 z2 E4 D4 C2 | %5
w: |Ri- den- do- si di me|la don- na mi- a,|la don- na mi- a,|In pre- mio|
 E2 D2 C4 B,2 B2 B3 c | A4 G2 G4 F2 G4 | =A2 B3 A/G/ A2 B4 F2 B2- | B2 G2 c3 BAG A4 G2 | %9
w: del mi a- mo- re, Mi fe- ce un|don d'un si- mu- la-|to co- * * * re, Spe- rai|_ un tem- * * * * po,|
 z2 F2 GFED E6 DC | E4 C2 D4 B,2 z4 | z2 C4 D2 EDEFGF E2 | D3 E F2 D2 E4 D2 G2 | %13
w: Spe- rai _ _ _ _ _ _|_ un tem- po|et fu va- * * * * * *|no il _ _ pen- sie- ro, Che|
 E3 F G2 E2 A3 A G2 G2 | F4 G4 z8 | z2 G2 B2 B2 B4 E2 G2 | A2 c2 B4 F2 B3 B G2 | %17
w: co- no- scen- do la mia pu- ra|fe- de,|Mi des- se in cam- bio, Mi|des- se in cam- bio il suo cor|
 AG G4 F2 G2 B4 B2 | G4 c3 B A4 G4 | z4 z2 G,2 A,2 C2 B,4 | z4 D4 E2 G2 F2 D2- | D2 E4 F2 G6 A2 | %22
w: vi- vo e ve- * ro, il suo|cor vi- vo e ve- ro,|Et que- sto sol,|Et que- sto sol mi|_ te- ne un tem- po in|
 G4 G4 z8 | z4 z2 B2 F2 F2 G4 | A4 G4 F2 EFGA B2- | B2 =A2 B4 z2 G2 G2 A2 | B2 G2 A4 G2 c4 B2 | %27
w: vi- ta,|Hor ch'ell' al- tro|v'il pied' ha vol- * * * *|* * to, E ad al- tre im-|pres' il ciel mi chia- ma,|
 z2 G2 G2 A2 B2 G2 A4 | G2 c4 B2 z8 | z8 G8- | G4 G4 G8 | B16 | B8 z4 z2 B2 | B3 G A2 B2 E4 B2 G2 | %34
w: E ad al- tre im- pres' il ciel|mi chia- ma,|Que-|* sto cor|ar-|do e'l|mio ri- tor- mi vo- glio, ri-|
 F2 E2 F4 G4 z4 | z2 E2 G2 B2 A2 G2 B4 | z8 z4 B2 BA | GF E2 D2 E3 D/C/ D2 E2 E2 | %38
w: tor- mi vo- glio,|E del su'in- de- gn'a- mor|lie- to _|_ _ _ mi scio- * * * glio, lie-|
 EFGA B2 B,CDE F3 F D2 | F8 F4 z2 G2 | F2 E2 F4 G4 z4 | z2 E2 G2 B2 A2 G2 B4 | z8 z4 B2 BA | %43
w: to, _ _ _ _ lie- * * * * to mi|scio- glio, lie-|to mi scio- glio,|E del su'in- de- gn'a- mor|lie- to _|
 GF E2 D2 E3 D/C/ D2 E2 E2 | EFGA B2 B,CDE F3 F D2 | F8 F8 |] %46
w: _ _ _ mi scio- * * * glio, lie-|to, _ _ _ _ lie- * * * * to mi|scio- glio.|
V:3
 z16 |[K:Eb][K:treble-8] e4 d3 e c2 B2 f4 | c2 e4 d2 c4 B4 | z4 z2 e4 d4 c2 | e2 d2 c4 B4 z2 c2- | %5
w: |Ri- den- do- si di me|la don- na mi- a,|In pre- mio|del mi a- mo- re, del|
 c2 B2 e4 d2 G2 G3 A | F4 E2 e4 d2 c2 B2 | f8 B4 z2 f2 | gfed e6 dc e4 | c2 d4 B2 z8 | %10
w: _ mi a- mo- re, Mi fe- ce un|don d'un si- mu- la- to|co- re, Spe-|rai _ _ _ _ _ _ _|un tem- po|
 z2 e4 f2 gfeded g2- | g2 e4 dc BG B3 =A A2 | B8 z4 z2 e2 | c3 d e2 e2 f3 f e2 c2 | %14
w: et fu va- * * * * * *|* no il _ _ _ pen- sie- * *|ro, Che|co- no- scen- do la mia pu- ra|
 c3 d e2 d2 c4 d2 g2 | f2 e2 f4 g4 z4 | z4 z2 d4 B2 B4 | e3 d c2 d2 e2 d2 d2 cd | e4 c4 z4 z2 d2 | %19
w: fe- * * * * de, Mi|des- se in cam- bio,|il suo cor|vi- * * vo e ve- * * * *|* ro, Et|
 e2 g2 f2 d2 c2 e2 d3 e | f4 f4 z2 e2 d3 c | B2 G2 c4 d2 e3 B f2- | f2 e2 e2 de f4 c4 | %23
w: que- sto sol mi te- ne un tem- po in|vi- ta, Et que- sto|sol mi te- ne un tem- po in vi-|* * * * * * ta,|
 z4 e4 d4 e4 | ABcd e4 d2 c4 B2 | f4 B2 d2 d3 d e4 | d2 e4 f2 g4 g2 e2 | d2 e2 c4 g2 g4 f2 | %28
w: Hor ch'ell' al-|tro _ _ _ _ v'il pied' ha|vol- to, E ad al- tre im- pres'|il ciel mi chia- ma, E ad|al- tre im- pres' il ciel mi|
 edcdef g4 !fermata!g2 z4 | z16 | e12 e4 | f8 g4 f4 | z2 e2 d3 e f2 f2 g4 | f2 d2 c2 B2 c4 d4 | %34
w: chia- * * * * * * ma,||Que- sto|cor ar- do|e'l mio ri- tor- mi vo-|glio, ri- tor- mi vo- glio,|
 z8 z2 e2 e2 d2 | c2 c2 B4 z4 z2 B2 | Bcde f2 g2 f4 B4 | z2 g2 f2 e2 f4 g4- | g4 z4 z2 d2 c2 B2 | %39
w: E del su'in-|de- gn'a- mor lie-|to _ _ _ _ mi scio- glio,|lie- to mi scio- glio,|_ lie- to mi|
 c8 d8 | z8 z2 e2 e2 d2 | c2 c2 B4 z4 z2 B2 | Bcde f2 g2 f4 B4 | z2 g2 f2 e2 f4 g4- | %44
w: scio- glio,|E del su'in-|de- gn'a- mor lie-|to _ _ _ _ mi scio- glio,|lie- to mi scio- glio,|
 g4 z4 z2 d2 c2 B2 | c8 d8 |] %46
w: _ lie- to mi|scio- glio.|
V:4
 z16 |[K:Eb] z16 | z16 | z16 | z16 | z16 | z16 | z8 z2 E,2 B,4 | G,2 C3 B,A,G, F,4 E,4 | %9
w: |||||||Spe- rai|un tem- * * * * po,|
 F,2 B,4 G,2 C3 B,A,G, A,2- | A,2 G,2 z4 G,6 E,2 | E,4 C,2 B,,2 E,3 D, C,4 | %12
w: Spe- rai un tem- * * * *|* po et fu|va- no il pen- sie- * *|
 B,,4 B,,4 E,3 F, G,2 E,2 | A,3 A, G,2 C2 F,G,A,B, C3 B, | A,4 G,4 z4 G,4 | %15
w: ro, Che co- no- scen- do|la mia pu- ra fe- * * * * *|* de, Mi|
 A,2 C2 B,4 E,2 G,2 A,2 E,2 | F,4 B,,2 B,4 G,2 G,4 | C3 B, A,4 G,8 | z8 z4 z2 B,2 | %19
w: des- se in cam- bio, Mi des- se in|cam- bio, il suo cor|vi- vo e ve- ro,|Et|
 A,2 G,2 B,4 z8 | z4 B,4 A,2 G,2 B,4 | G,4 A,4 G,2 E,4 F,2 | C8 F,8 | z16 | z16 | %25
w: que- sto sol,|Et que- sto sol|mi te- ne un tem- po in|vi- ta,|||
 z4 z2 B,2 B,3 B, C4 | B,2 C4 D2 E4 E4 | z8 B,2 C4 D2 | E4 E4 z4 G,4- | G,4 G,4 G,8 | C16 | B,16 | %32
w: E ad al- tre im- pres'|il ciel mi chia- ma,|il ciel mi|chia- ma, Que-|* sto cor|ar-|do|
 z2 E,2 B,3 G, A,2 B,2 E,4 | B,4 z4 z4 B,4 | A,2 G,2 F,2 F,2 E,4 z4 | z2 E,2 E,2 D,2 C,2 C,2 B,,4 | %36
w: e'l mio ri- tor- mi vo-|glio, E|del su'in- de- gn'a- mor,|E del su'in- de- gn'a- mor|
 z8 z4 z2 E,2 | E,F,G,A, B,2 C2 B,4 E,4 | z4 z2 B,,2 B,,C,D,E, F,2 G,2 | F,8 B,,4 B,4 | %40
w: lie-|to _ _ _ _ mi scio- glio,|lie- to _ _ _ _ mi|scio- glio, E|
 A,2 G,2 F,2 F,2 E,4 z4 | z2 E,2 E,2 D,2 C,2 C,2 B,,4 | z8 z4 z2 E,2 | E,F,G,A, B,2 C2 B,4 E,4 | %44
w: del su'in- de- gn'a- mor,|E del su'in- de- gn'a- mor|lie-|to _ _ _ _ mi scio- glio,|
 z4 z2 B,,2 B,,C,D,E, F,2 G,2 | F,8 B,,8 |] %46
w: lie- to _ _ _ _ mi|scio- glio.|

